X:6040
T:Sillocks and Tatties
O:england
M:4/4
L:1/8
Q:1/4=220
C:Trad Shetland
K:D
B|A2 B=c BGGB|A2 Ag fded|A2 A=c BGGe|faef d3:||
g|fdad ecce|fdad bdad|fdad edde|faef d2 de|
fdad edde|fdad bdad|gefd eaae|faef d3||


